X:1
T:Campbell River Jig
M:6/8
L:1/8
K:Bm
C:Dean Kenty
Bc|"Bm"dcd "A"cBc|"Bm"BFE DB,C|DEF Bcd|"A"cAA ABc|!
"Bm"dcd "A"cBc|"Bm"BFE DEF|Bcd "A"cAc|"Bm"B3-B:||!
Bc|"Bm"dcd BAB|"A"ede ABc|"Bm"dcd Bcd|"A"e3 cde|!"D"fed "Bm"BFE|"G"DB,C "D"DEF|"Bm"Bcd "A"cAc|"Bm"B3-B:|]!
